X: 16081
T: Green Fields Of Rossbeigh, The
R: reel
M: 4/4
K: Edorian
|:A|"Em"BEEA BAFB|"D"ABde fded|"Em"BEEA BAFA|"D"BFAF "Em"E2FA|
"Em"B2Bd BAFB|"D"ABde fded|"Em"BEEA "Bm"BAFA|"D"BFAF "Em"E3:|
|:A|"Em"Bdef g2fe|"Bm"dBBc "D"dBAd|"Em"Bdef gefe|"Bm"dBAF "Em"E2ef|
"Em"g2ga gfeg|"D"f2fg fedB|"D"ABde "Bm"fdec|"D"dBAF "Em"E3:|

